packages/assets/static/images/icons/bold/certificate--bold.svg

<svg width="24" height="24" viewBox="0 0 24 24" xmlns="http://www.w3.org/2000/svg">
<path d="M11.5 13.125C11.5 13.4234 11.3815 13.7095 11.1705 13.9205C10.9595 14.1315 10.6734 14.25 10.375 14.25H6.25C5.95163 14.25 5.66548 14.1315 5.4545 13.9205C5.24353 13.7095 5.125 13.4234 5.125 13.125C5.125 12.8266 5.24353 12.5405 5.4545 12.3295C5.66548 12.1185 5.95163 12 6.25 12H10.375C10.6734 12 10.9595 12.1185 11.1705 12.3295C11.3815 12.5405 11.5 12.8266 11.5 13.125ZM10.375 8.25H6.25C5.95163 8.25 5.66548 8.36853 5.4545 8.5795C5.24353 8.79048 5.125 9.07663 5.125 9.375C5.125 9.67337 5.24353 9.95952 5.4545 10.1705C5.66548 10.3815 5.95163 10.5 6.25 10.5H10.375C10.6734 10.5 10.9595 10.3815 11.1705 10.1705C11.3815 9.95952 11.5 9.67337 11.5 9.375C11.5 9.07663 11.3815 8.79048 11.1705 8.5795C10.9595 8.36853 10.6734 8.25 10.375 8.25ZM21.625 15.6694V21.375C21.625 21.572 21.5732 21.7656 21.4749 21.9363C21.3766 22.107 21.2352 22.2489 21.0648 22.3479C20.8944 22.4468 20.701 22.4992 20.504 22.4999C20.307 22.5006 20.1133 22.4496 19.9422 22.3519L17.875 21.1706L15.8125 22.3519C15.6413 22.4507 15.4471 22.5027 15.2494 22.5026C15.0517 22.5025 14.8575 22.4503 14.6864 22.3512C14.5153 22.2522 14.3733 22.1098 14.2747 21.9384C14.1762 21.767 14.1245 21.5727 14.125 21.375V19.125H3.25C2.75272 19.125 2.27581 18.9275 1.92417 18.5758C1.57254 18.2242 1.375 17.7473 1.375 17.25V5.25C1.375 4.75272 1.57254 4.27581 1.92417 3.92417C2.27581 3.57254 2.75272 3.375 3.25 3.375H19.75C20.2473 3.375 20.7242 3.57254 21.0758 3.92417C21.4275 4.27581 21.625 4.75272 21.625 5.25V8.33063C22.5865 9.30998 23.1251 10.6276 23.1251 12C23.1251 13.3724 22.5865 14.69 21.625 15.6694ZM17.875 15C18.4683 15 19.0484 14.8241 19.5417 14.4944C20.0351 14.1648 20.4196 13.6962 20.6466 13.1481C20.8737 12.5999 20.9331 11.9967 20.8174 11.4147C20.7016 10.8328 20.4159 10.2982 19.9963 9.87868C19.5768 9.45912 19.0422 9.1734 18.4603 9.05764C17.8783 8.94189 17.2751 9.0013 16.727 9.22836C16.1788 9.45542 15.7102 9.83994 15.3806 10.3333C15.0509 10.8266 14.875 11.4067 14.875 12C14.875 12.7956 15.1911 13.5587 15.7537 14.1213C16.3163 14.6839 17.0794 15 17.875 15ZM14.125 16.875V15.6694C13.3134 14.8377 12.8006 13.7601 12.6672 12.6057C12.5337 11.4513 12.787 10.2852 13.3874 9.29025C13.9879 8.29526 14.9014 7.52761 15.985 7.10761C17.0686 6.68761 18.2608 6.63899 19.375 6.96937V5.625H3.625V16.875H14.125ZM19.375 19.4363V17.0306C18.3964 17.3231 17.3536 17.3231 16.375 17.0306V19.4363L17.3172 18.8981C17.4871 18.8011 17.6794 18.7501 17.875 18.7501C18.0706 18.7501 18.2629 18.8011 18.4328 18.8981L19.375 19.4363Z"/>
</svg>

<svg viewBox="0 0 24 24" xmlns="http://www.w3.org/2000/svg" aria-hidden="true" fill="currentColor"><path d="M11.5 13.125a1.125 1.125 0 0 1-1.125 1.125H6.25a1.125 1.125 0 1 1 0-2.25h4.125a1.125 1.125 0 0 1 1.125 1.125M10.375 8.25H6.25a1.125 1.125 0 0 0 0 2.25h4.125a1.125 1.125 0 1 0 0-2.25m11.25 7.42v5.705a1.125 1.125 0 0 1-1.683.977l-2.067-1.181-2.062 1.18a1.125 1.125 0 0 1-1.688-.976v-2.25H3.25a1.875 1.875 0 0 1-1.875-1.875v-12A1.875 1.875 0 0 1 3.25 3.375h16.5a1.875 1.875 0 0 1 1.875 1.875v3.08a5.24 5.24 0 0 1 0 7.34m-3.75-.67a3 3 0 1 0 0-5.999 3 3 0 0 0 0 5.999m-3.75 1.875v-1.206a5.25 5.25 0 0 1 5.25-8.7V5.625H3.625v11.25zm5.25 2.561v-2.405a5.24 5.24 0 0 1-3 0v2.405l.942-.538a1.13 1.13 0 0 1 1.116 0z"/></svg>
